img/yt-icon-color.svg

<svg width="85" height="19" viewBox="0 0 85 19" fill="none" xmlns="http://www.w3.org/2000/svg">
<g clip-path="url(#clip0)">
<path d="M26.5332 2.97294C26.2208 1.81059 25.3059 0.894118 24.1455 0.581176C22.0255 0 13.5456 0 13.5456 0C13.5456 0 5.06564 0 2.94566 0.558824C1.80756 0.871765 0.870307 1.81059 0.557889 2.97294C0 5.09647 0 9.5 0 9.5C0 9.5 0 13.9259 0.557889 16.0271C0.870307 17.1894 1.78525 18.1059 2.94566 18.4188C5.08795 19 13.5456 19 13.5456 19C13.5456 19 22.0255 19 24.1455 18.4412C25.3059 18.1282 26.2208 17.2118 26.5332 16.0494C27.0911 13.9259 27.0911 9.52235 27.0911 9.52235C27.0911 9.52235 27.1134 5.09647 26.5332 2.97294Z" fill="#FF0000"/>
<path d="M10.8454 13.5682L17.8971 9.5L10.8454 5.43176V13.5682Z" fill="white"/>
<path d="M39.3423 17.3012C38.8068 16.9436 38.4274 16.3848 38.2042 15.6024C37.9811 14.8424 37.8695 13.8142 37.8695 12.5624V10.8412C37.8695 9.56712 38.0034 8.53889 38.2489 7.75653C38.5167 6.97418 38.9183 6.41536 39.4539 6.05771C40.0118 5.70006 40.7259 5.52124 41.6185 5.52124C42.4888 5.52124 43.2029 5.70006 43.7385 6.05771C44.2741 6.41536 44.6535 6.99653 44.8989 7.75653C45.1444 8.51653 45.2783 9.54477 45.2783 10.8412V12.5624C45.2783 13.8365 45.1667 14.8424 44.9212 15.6248C44.6758 16.3848 44.2964 16.9659 43.7608 17.3236C43.2253 17.6812 42.4888 17.8601 41.5739 17.8601C40.6366 17.8377 39.8779 17.6589 39.3423 17.3012ZM42.3549 15.4236C42.5112 15.0436 42.5781 14.3954 42.5781 13.5236V9.813C42.5781 8.96359 42.5112 8.33771 42.3549 7.93536C42.1987 7.533 41.9533 7.35418 41.5739 7.35418C41.2169 7.35418 40.9491 7.55536 40.8152 7.93536C40.659 8.33771 40.592 8.96359 40.592 9.813V13.5236C40.592 14.3954 40.659 15.0436 40.8152 15.4236C40.9491 15.8036 41.2168 16.0048 41.5962 16.0048C41.9533 16.0048 42.1987 15.8259 42.3549 15.4236Z" fill="#282828"/>
<path d="M80.5369 12.5847V13.1882C80.5369 13.9482 80.5592 14.5294 80.6039 14.9094C80.6485 15.2894 80.7377 15.58 80.894 15.7364C81.0279 15.9153 81.251 16.0047 81.5634 16.0047C81.9651 16.0047 82.2329 15.8482 82.3891 15.5353C82.5453 15.2223 82.6123 14.7082 82.6346 13.9706L84.9331 14.1047C84.9554 14.2164 84.9554 14.3506 84.9554 14.5294C84.9554 15.6247 84.6653 16.4517 84.0628 16.9882C83.4603 17.5247 82.6123 17.7929 81.5188 17.7929C80.2022 17.7929 79.2872 17.3682 78.7517 16.5411C78.2161 15.7141 77.9483 14.44 77.9483 12.6964V10.6176C77.9483 8.82938 78.2161 7.53291 78.774 6.70585C79.3319 5.87879 80.2691 5.47644 81.5857 5.47644C82.5007 5.47644 83.2148 5.65526 83.7057 5.99056C84.1967 6.32585 84.5314 6.86232 84.7323 7.55526C84.9331 8.27056 85.0224 9.25409 85.0224 10.5059V12.54H80.5369V12.5847ZM80.8716 7.57762C80.7377 7.75644 80.6485 8.02468 80.6039 8.40468C80.5592 8.78468 80.5369 9.36585 80.5369 10.1482V10.9976H82.5007V10.1482C82.5007 9.38821 82.4784 8.80703 82.4337 8.40468C82.3891 8.00232 82.2775 7.73409 82.1436 7.57762C82.0097 7.42115 81.7866 7.33173 81.5188 7.33173C81.2064 7.30938 81.0055 7.39879 80.8716 7.57762Z" fill="#282828"/>
<path d="M32.8262 12.3612L29.7913 1.34119H32.4468L33.518 6.32589C33.7858 7.5553 33.9866 8.60589 34.1205 9.47766H34.1875C34.2767 8.85178 34.4776 7.82354 34.79 6.34825L35.9058 1.34119H38.5613L35.4818 12.3612V17.6365H32.8485V12.3612H32.8262Z" fill="#282828"/>
<path d="M53.9144 5.74475V17.6589H51.8168L51.5936 16.2059H51.5267C50.9688 17.3012 50.0985 17.86 48.9604 17.86C48.1793 17.86 47.5991 17.5918 47.2198 17.0777C46.8404 16.5636 46.6619 15.7589 46.6619 14.6412V5.74475H49.3397V14.4847C49.3397 15.0212 49.4067 15.4012 49.5183 15.6247C49.6298 15.8483 49.8307 15.96 50.0985 15.96C50.3216 15.96 50.5448 15.893 50.7679 15.7365C50.9911 15.6024 51.1473 15.4236 51.2366 15.2V5.74475H53.9144Z" fill="#282828"/>
<path d="M67.6385 5.74475V17.6589H65.5408L65.3177 16.2059H65.2507C64.6928 17.3012 63.8225 17.86 62.6844 17.86C61.9034 17.86 61.3232 17.5918 60.9438 17.0777C60.5645 16.5636 60.3859 15.7589 60.3859 14.6412V5.74475H63.0638V14.4847C63.0638 15.0212 63.1307 15.4012 63.2423 15.6247C63.3539 15.8483 63.5547 15.96 63.8225 15.96C64.0457 15.96 64.2688 15.893 64.492 15.7365C64.7152 15.6024 64.8714 15.4236 64.9606 15.2V5.74475H67.6385Z" fill="#282828"/>
<path d="M61.1893 3.50942H58.5337V17.6365H55.9228V3.50942H53.2673V1.34119H61.1893V3.50942Z" fill="#282828"/>
<path d="M76.4978 7.64473C76.3416 6.88473 76.0738 6.34826 75.7167 6.01297C75.3597 5.67767 74.8464 5.49885 74.2216 5.49885C73.7306 5.49885 73.262 5.63297 72.838 5.92355C72.414 6.19179 72.0793 6.57179 71.8561 7.01885H71.8338V0.737671H69.2452V17.6365H71.4545L71.7222 16.5188H71.7892C71.99 16.9212 72.3024 17.2341 72.7264 17.48C73.1504 17.7036 73.5967 17.8377 74.11 17.8377C75.0249 17.8377 75.6721 17.413 76.0961 16.5859C76.5201 15.7588 76.7432 14.44 76.7432 12.6741V10.7965C76.7209 9.43297 76.654 8.38238 76.4978 7.64473ZM74.0431 12.4953C74.0431 13.3671 73.9984 14.0377 73.9315 14.5294C73.8645 15.0212 73.7306 15.3788 73.5744 15.58C73.3959 15.7812 73.1728 15.893 72.905 15.893C72.6818 15.893 72.481 15.8483 72.3024 15.7365C72.1239 15.6247 71.9677 15.4683 71.8561 15.2671V8.51649C71.9454 8.20355 72.1016 7.93532 72.3248 7.71179C72.5479 7.51061 72.7934 7.39885 73.0389 7.39885C73.3066 7.39885 73.5298 7.51061 73.6637 7.71179C73.8199 7.93532 73.9092 8.29296 73.9761 8.78473C74.0431 9.29885 74.0654 10.0141 74.0654 10.9306V12.4953H74.0431Z" fill="#282828"/>
</g>
<defs>
<clipPath id="clip0">
<rect width="85" height="19" fill="white"/>
</clipPath>
</defs>
</svg>

<svg width="85" height="19" viewBox="0 0 85 19" fill="none" xmlns="http://www.w3.org/2000/svg"><g clip-path="url(#a)"><path d="M26.533 2.973A3.397 3.397 0 0 0 24.145.58C22.025 0 13.545 0 13.545 0s-8.48 0-10.6.559A3.467 3.467 0 0 0 .559 2.973C0 5.096 0 9.5 0 9.5s0 4.426.558 6.527a3.397 3.397 0 0 0 2.388 2.392c2.142.581 10.6.581 10.6.581s8.48 0 10.6-.559a3.397 3.397 0 0 0 2.387-2.392c.558-2.123.558-6.527.558-6.527s.022-4.426-.558-6.55z" fill="#F00"/><path d="M10.845 13.568L17.897 9.5l-7.052-4.068v8.136z" fill="#fff"/><path d="M39.342 17.301c-.535-.357-.915-.916-1.138-1.699-.223-.76-.334-1.788-.334-3.04v-1.72c0-1.275.133-2.303.379-3.085.268-.783.67-1.342 1.205-1.7.558-.357 1.272-.536 2.164-.536.87 0 1.585.18 2.12.537.536.357.916.939 1.16 1.699.246.76.38 1.788.38 3.084v1.721c0 1.274-.111 2.28-.357 3.063-.245.76-.625 1.34-1.16 1.699-.536.357-1.272.536-2.187.536-.937-.022-1.696-.201-2.232-.559zm3.013-1.877c.156-.38.223-1.029.223-1.9V9.813c0-.85-.067-1.475-.223-1.878-.156-.402-.402-.58-.781-.58-.357 0-.625.2-.759.58-.156.403-.223 1.029-.223 1.878v3.71c0 .872.067 1.52.223 1.9.134.38.402.582.781.582.357 0 .603-.18.759-.581zm38.182-2.839v.603c0 .76.022 1.341.067 1.721.044.38.134.671.29.827.134.18.357.269.67.269.401 0 .669-.157.825-.47.156-.313.223-.827.246-1.564l2.298.134c.022.111.022.246.022.424 0 1.096-.29 1.923-.892 2.46-.603.536-1.45.804-2.544.804-1.317 0-2.232-.425-2.767-1.252-.536-.827-.804-2.101-.804-3.845v-2.078c0-1.789.268-3.085.826-3.912.558-.827 1.495-1.23 2.812-1.23.915 0 1.629.18 2.12.515.49.335.825.871 1.026 1.564.201.716.29 1.7.29 2.95v2.035h-4.485v.045zm.335-5.007c-.134.178-.224.447-.268.827-.045.38-.067.96-.067 1.743v.85H82.5v-.85c0-.76-.023-1.341-.067-1.743-.045-.403-.156-.67-.29-.827-.134-.157-.357-.246-.625-.246-.313-.023-.514.067-.647.246zm-48.046 4.783l-3.035-11.02h2.656l1.071 4.985c.268 1.23.469 2.28.602 3.152h.068c.089-.626.29-1.654.602-3.13l1.116-5.007h2.655l-3.08 11.02v5.276h-2.633V12.36h-.022zm21.088-6.616v11.914h-2.097l-.223-1.453h-.067c-.558 1.095-1.428 1.654-2.567 1.654-.78 0-1.36-.268-1.74-.782-.38-.514-.558-1.32-.558-2.437V5.745h2.678v8.74c0 .536.067.916.178 1.14.112.223.313.335.58.335.224 0 .447-.067.67-.224.223-.134.38-.312.469-.536V5.745h2.677zm13.724 0v11.914h-2.097l-.223-1.453h-.067c-.558 1.095-1.429 1.654-2.567 1.654-.78 0-1.36-.268-1.74-.782-.38-.514-.558-1.32-.558-2.437V5.745h2.678v8.74c0 .536.067.916.178 1.14.112.223.313.335.58.335.224 0 .447-.067.67-.224.223-.134.38-.312.469-.536V5.745h2.677z" fill="#282828"/><path d="M61.19 3.51h-2.656v14.127h-2.611V3.509h-2.656V1.341h7.922V3.51zm15.308 4.135c-.156-.76-.424-1.297-.781-1.632-.357-.335-.87-.514-1.495-.514-.491 0-.96.134-1.384.425a2.733 2.733 0 0 0-.982 1.095h-.022V.738h-2.589v16.899h2.21l.267-1.118h.067c.201.402.513.715.937.961.424.224.87.358 1.384.358.915 0 1.562-.425 1.986-1.252.424-.827.647-2.146.647-3.912v-1.877c-.022-1.364-.089-2.415-.245-3.152zm-2.455 4.85c0 .872-.045 1.543-.112 2.034-.066.492-.2.85-.357 1.051a.868.868 0 0 1-.669.313c-.223 0-.424-.045-.603-.157a1.29 1.29 0 0 1-.446-.469v-6.75c.09-.313.246-.582.469-.805.223-.201.468-.313.714-.313.268 0 .49.112.625.313.156.223.245.581.312 1.073.067.514.09 1.23.09 2.146v1.564h-.023z" fill="#282828"/></g><defs><clipPath id="a"><path fill="#fff" d="M0 0h85v19H0z"/></clipPath></defs></svg>
